Pub Folder/attach/musx.svg

<svg width="16" height="16" xmlns="http://www.w3.org/2000/svg" fill-rule="evenodd" clip-rule="evenodd" stroke-linejoin="round" stroke-miterlimit="2"><g transform="matrix(.02832 0 0 .02884 .763 1)"><path d="M432.102 485.516H79V0h273.656l79.446 79.449v406.067z" fill="url(#_Linear1)" fill-rule="nonzero"/><clipPath id="a"><path d="M432.102 485.516H79V0h273.656l79.446 79.449v406.067z" clip-rule="nonzero"/></clipPath><g clip-path="url(#a)"><path d="M352.656 0v79.449h79.446L352.656 0z" fill="#0d6976" fill-rule="nonzero"/><path d="M353.225-15.596l.707.041.706.071.701.102.696.133.689.163.682.194.671.222.661.253.649.28.635.309.621.337.605.363.588.39.569.415.55.439.53.463.508.486 79.445 79.449.482.504.459.524.434.544.41.562.384.579.357.595.33.61.303.624.274.637.245.648.215.657.186.667.155.674.125.68.094.685.064.688.032.69.001.692-.031.69-.061.688-.092.686-.123.68-.154.674-.184.667-.213.659-.244.648-.272.638-.3.624-.329.611-.356.597-.382.58-.408.563-.433.545-.457.525-.481.505-.502.483-.524.462-.545.438-.563.413-.582.389-.598.364-.614.337-.629.31-.643.282-.654.254-.665.225-.675.196-.683.167-.689.137-.696.107-.699.076-.702.046-.703.015h-79.446l-.713-.016-.711-.047-.709-.078-.704-.11-.699-.14-.691-.171-.683-.202-.673-.231-.662-.261-.649-.289-.635-.318-.621-.346-.603-.373-.586-.398-.568-.425-.547-.448-.526-.473-.505-.495-.481-.517-.457-.538-.432-.557-.406-.576-.379-.593-.352-.609-.324-.624-.295-.637-.265-.65-.236-.661-.205-.671-.174-.679-.143-.686-.112-.692-.079-.696-.048-.699-.016-.7V0l.015-.696.048-.695.079-.692.11-.688.142-.682.172-.676.203-.667.233-.658.262-.647.292-.635.32-.621.348-.607.376-.59.401-.574.428-.556.452-.536.476-.516.499-.495.521-.472.543-.449.561-.424.581-.4.598-.374.615-.347.63-.32.643-.292.657-.264.667-.235.678-.205.686-.175.694-.145.699-.114.704-.084.707-.053.709-.021.709.009zm-.569 95.045h79.446L352.656 0v79.449z"/><path d="M114.31 405.737c0-10.498 0-10.498 7.436-14.15 30.673-15.975 54.374-36.059 75.752-64.358 7.9-10.498 20.449-29.212 19.52-30.125 0-.456-12.549-.456-27.885-.456h-27.42v-.457c0-.456.93-1.826 2.324-3.195 6.042-7.76 16.266-22.366 21.843-31.038l2.788-4.564c.465-.457 12.083-.457 26.026-.457 25.096 0 25.096 0 26.025-2.282l5.577-9.585c1.394-2.739 2.324-4.108 5.112-9.13 7.436-13.692 22.307-35.145 29.279-43.361.929-.456 2.788-2.739 4.647-5.02 7.436-8.217 18.125-18.258 27.42-25.105 11.618-8.672 26.025-16.432 39.038-21.453 2.323-.913 4.647-1.37 5.112-1.826.464-.456 8.365-.456 20.448-.456h19.52v37.428h-.93c-.465.457-4.183 1.37-7.9 2.282-10.225 2.739-14.408 3.652-20.45 6.39-26.025 10.042-46.008 27.387-65.063 57.056-5.577 8.216-9.294 14.606-9.294 15.062.464.457 8.365.457 23.236.457 22.308 0 22.308 0 22.773.913.464.456.93 1.369.93 1.825 0 0-5.113 8.216-11.155 18.258-11.618 18.258-11.618 18.258-34.39 18.258l-23.237.456-.465.456c-.465 1.37-10.689 19.171-15.336 27.387-22.308 36.515-46.474 63.445-77.147 85.81-3.253 2.74-6.506 4.565-6.971 4.565h-.465v.913H114.31v-10.498z" fill="#fff" fill-rule="nonzero"/></g><path d="M354.407-17.254l1.733.255 1.698.423 1.648.586 1.581.744 1.497.894 1.4 1.035 1.289 1.167 79.445 79.449 1.139 1.256 1.01 1.359.872 1.448.724 1.524.571 1.586.411 1.633.249 1.664.083 1.68v406.067l-.097 1.812-.289 1.793-.478 1.753-.663 1.694-.839 1.618-1.006 1.522-1.163 1.41-1.307 1.284-1.436 1.142-1.55.988-1.646.824-1.726.651-1.785.47-1.825.283-1.845.095H79l-1.845-.095-1.826-.283-1.785-.47-1.725-.651-1.647-.824-1.549-.988-1.437-1.142-1.306-1.284-1.163-1.41-1.007-1.522-.839-1.618-.662-1.694-.478-1.753-.289-1.793-.097-1.812V0l.097-1.813.289-1.792.478-1.753.662-1.695.839-1.617 1.007-1.522 1.163-1.411 1.306-1.283 1.437-1.142 1.549-.989 1.647-.824 1.725-.65 1.785-.47 1.826-.284L79-17.34h273.656l1.751.086zM79 0v485.516h353.102V79.449L352.656 0H79z"/></g><defs><linearGradient id="_Linear1" x1="0" y1="0" x2="1" y2="0" gradientUnits="userSpaceOnUse" gradientTransform="matrix(0 -485.516 692.079 0 255.551 485.516)"><stop offset="0" stop-color="#0d6672"/><stop offset=".45" stop-color="#063238"/><stop offset="1" stop-color="#042428"/></linearGradient></defs></svg>

<?xml version="1.0" encoding="UTF-8" standalone="no"?>
<!DOCTYPE svg PUBLIC "-//W3C//DTD SVG 1.1//EN" "http://www.w3.org/Graphics/SVG/1.1/DTD/svg11.dtd">
<svg width="100%" height="100%" viewBox="0 0 16 16" version="1.1" xmlns="http://www.w3.org/2000/svg" xmlns:xlink="http://www.w3.org/1999/xlink" xml:space="preserve" xmlns:serif="http://www.serif.com/" style="fill-rule:evenodd;clip-rule:evenodd;stroke-linejoin:round;stroke-miterlimit:2;">
    <g id="Finale-Icon" serif:id="Finale Icon" transform="matrix(0.0283205,0,0,0.0288353,0.762683,1)">
        <path d="M432.102,485.516L79,485.516L79,0L352.656,0L432.102,79.449L432.102,485.516Z" style="fill:url(#_Linear1);fill-rule:nonzero;"/>
        <clipPath id="_clip2">
            <path d="M432.102,485.516L79,485.516L79,0L352.656,0L432.102,79.449L432.102,485.516Z" clip-rule="nonzero"/>
        </clipPath>
        <g clip-path="url(#_clip2)">
            <path d="M352.656,0L352.656,79.449L432.102,79.449L352.656,0Z" style="fill:rgb(13,105,118);fill-rule:nonzero;"/>
            <path d="M353.225,-15.596L353.932,-15.555L354.638,-15.484L355.339,-15.382L356.035,-15.249L356.724,-15.086L357.406,-14.892L358.077,-14.67L358.738,-14.417L359.387,-14.137L360.022,-13.828L360.643,-13.491L361.248,-13.128L361.836,-12.738L362.405,-12.323L362.955,-11.884L363.485,-11.421L363.993,-10.935L443.438,68.514L443.92,69.018L444.379,69.542L444.813,70.086L445.223,70.648L445.607,71.227L445.964,71.822L446.294,72.432L446.597,73.056L446.871,73.693L447.116,74.341L447.331,74.998L447.517,75.665L447.672,76.339L447.797,77.019L447.891,77.704L447.955,78.392L447.987,79.082L447.988,79.774L447.957,80.464L447.896,81.152L447.804,81.838L447.681,82.518L447.527,83.192L447.343,83.859L447.13,84.518L446.886,85.166L446.614,85.804L446.314,86.428L445.985,87.039L445.629,87.636L445.247,88.216L444.839,88.779L444.406,89.324L443.949,89.849L443.468,90.354L442.966,90.837L442.442,91.299L441.897,91.737L441.334,92.15L440.752,92.539L440.154,92.903L439.54,93.24L438.911,93.55L438.268,93.832L437.614,94.086L436.949,94.311L436.274,94.507L435.591,94.674L434.902,94.811L434.206,94.918L433.507,94.994L432.805,95.04L432.102,95.055L352.656,95.055L351.943,95.039L351.232,94.992L350.523,94.914L349.819,94.804L349.12,94.664L348.429,94.493L347.746,94.291L347.073,94.06L346.411,93.799L345.762,93.51L345.127,93.192L344.506,92.846L343.903,92.473L343.317,92.075L342.749,91.65L342.202,91.202L341.676,90.729L341.171,90.234L340.69,89.717L340.233,89.179L339.801,88.622L339.395,88.046L339.016,87.453L338.664,86.844L338.34,86.22L338.045,85.583L337.78,84.933L337.544,84.272L337.339,83.601L337.165,82.922L337.022,82.236L336.91,81.544L336.831,80.848L336.783,80.149L336.767,79.449L336.767,0L336.782,-0.696L336.83,-1.391L336.909,-2.083L337.019,-2.771L337.161,-3.453L337.333,-4.129L337.536,-4.796L337.769,-5.454L338.031,-6.101L338.323,-6.736L338.643,-7.357L338.991,-7.964L339.367,-8.554L339.768,-9.128L340.196,-9.684L340.648,-10.22L341.124,-10.736L341.623,-11.231L342.144,-11.703L342.687,-12.152L343.248,-12.576L343.829,-12.976L344.427,-13.35L345.042,-13.697L345.672,-14.017L346.315,-14.309L346.972,-14.573L347.639,-14.808L348.317,-15.013L349.003,-15.188L349.697,-15.333L350.396,-15.447L351.1,-15.531L351.807,-15.584L352.516,-15.605L353.225,-15.596ZM352.656,79.449L432.102,79.449L352.656,0L352.656,79.449Z"/>
            <g transform="matrix(0.464739,0,0,0.456441,114.31,138.719)">
                <path d="M0,585C0,562 0,562 16,554C82,519 133,475 179,413C196,390 223,349 221,347C221,346 194,346 161,346L102,346L102,345C102,344 104,341 107,338C120,321 142,289 154,270C157,265 160,260 160,260C161,259 186,259 216,259C270,259 270,259 272,254C276,247 280,240 284,233C287,227 289,224 295,213C311,183 343,136 358,118C360,117 364,112 368,107C384,89 407,67 427,52C452,33 483,16 511,5C516,3 521,2 522,1C523,0 540,0 566,0L608,0L608,82L606,82C605,83 597,85 589,87C567,93 558,95 545,101C489,123 446,161 405,226C393,244 385,258 385,259C386,260 403,260 435,260C483,260 483,260 484,262C485,263 486,265 486,266C486,266 475,284 462,306C437,346 437,346 388,346L338,347L337,348C336,351 314,390 304,408C256,488 204,547 138,596C131,602 124,606 123,606L122,606L122,608L61,608L0,608L0,585Z" style="fill:white;fill-rule:nonzero;"/>
            </g>
        </g>
        <path d="M354.407,-17.254L356.14,-16.999L357.838,-16.576L359.486,-15.99L361.067,-15.246L362.564,-14.352L363.964,-13.317L365.253,-12.15L444.698,67.299L445.837,68.555L446.847,69.914L447.719,71.362L448.443,72.886L449.014,74.472L449.425,76.105L449.674,77.769L449.757,79.449L449.757,485.516L449.66,487.328L449.371,489.121L448.893,490.874L448.23,492.568L447.391,494.186L446.385,495.708L445.222,497.118L443.915,498.402L442.479,499.544L440.929,500.532L439.283,501.356L437.557,502.007L435.772,502.477L433.947,502.76L432.102,502.855L79,502.855L77.155,502.76L75.329,502.477L73.544,502.007L71.819,501.356L70.172,500.532L68.623,499.544L67.186,498.402L65.88,497.118L64.717,495.708L63.71,494.186L62.871,492.568L62.209,490.874L61.731,489.121L61.442,487.328L61.345,485.516L61.345,0L61.442,-1.813L61.731,-3.605L62.209,-5.358L62.871,-7.053L63.71,-8.67L64.717,-10.192L65.88,-11.603L67.186,-12.886L68.623,-14.028L70.172,-15.017L71.819,-15.841L73.544,-16.491L75.329,-16.961L77.155,-17.245L79,-17.34L352.656,-17.34L354.407,-17.254ZM79,0L79,485.516L432.102,485.516L432.102,79.449L352.656,0L79,0Z"/>
    </g>
    <defs>
        <linearGradient id="_Linear1" x1="0" y1="0" x2="1" y2="0" gradientUnits="userSpaceOnUse" gradientTransform="matrix(3.02697e-14,-485.516,692.079,4.1621e-14,255.551,485.516)"><stop offset="0" style="stop-color:rgb(13,102,114);stop-opacity:1"/><stop offset="0.45" style="stop-color:rgb(6,50,56);stop-opacity:1"/><stop offset="1" style="stop-color:rgb(4,36,40);stop-opacity:1"/></linearGradient>
    </defs>
</svg>
